X:28
T:Drops of Brandy
R:slip jig
E:13
I:speed 350
M:9/8
K:G
ded BGB BGB|ded BGB cBA|ded BGB BGB|cBc AFA cBA:|\
GBd gdB gdB|GBd gdB cBA|GBd gdB gdB|cBc AFA cBA|\
GBd gdB gdB|GBd gdB cBA|GBd gba gdB|cBc AFA cBA||**
<end>
<start>
